X: 38526
T: Step Dancer, The
R: reel
M: 4/4
K: Edorian
|:D2 AD FDAD|A2 dB AFEF|D2 AD FDFA|1 (3Bcd AF EGFE:|2 (3Bcd AF E2 FA||
|:d2 dA BAFA|d2 eg fdBc|d2 dA BAFA|1 (3Bcd AF E2 FA:|2 (3Bcd AF EGFE||

